X: 3413
T:Groom Jig, The
R:Jig
S:Mother and duaghter concertina duo
D:From RTE 'The Pure Drop'
Z:Bernie Stocks
M:6/8
L:1/8
K:G
|:cBA dcA|GEF G2B|cBA dcA|GED D2B|!
cAA dAA|cAG Add|fed (3ege d|1 ^cAA A2B:|2 ^cAA A2d||!
K:D
|:fgf fed|cAG Add|eaa age|edd d2e|!
faf fed|cAG Add|fed (3ege d|cAA A2d :
